packages/ffe-icons/icons/open/400/lg/stroke_partial.svg

<svg xmlns="http://www.w3.org/2000/svg" height="40" viewBox="0 -960 960 960" width="40"><path d="M456.999-80q-82.333 0-155.333-31.5t-127.333-85.833q-54.334-54.334-85.834-127.334T57-480q0-83 31.5-156t85.834-127q54.333-54 127.333-85.5T456.999-880q83 0 156 31.5t127 85.5q54 54 85.5 127t31.5 156q0 82.333-31.5 155.333t-85.5 127.334q-54 54.333-127 85.833t-156 31.5ZM753-326.667H349.333l-53.334 53.334h422.667q10-12.667 18.501-25.834 8.5-13.166 15.833-27.5Zm36-120H470.333l-54.001 53.334H779q3.333-12.667 5.667-25.834 2.333-13.166 4.333-27.5Zm-10-120H590.333l-53.334 53.334H789q-2-14.334-4.333-27.5Q782.333-554 779-566.667Zm-63.667-124-57.334 57.334H753q-7.667-16-17.167-29.834-9.5-13.833-20.5-27.5ZM198.666-269.333 669-737.667q-43.667-36-97.334-55.833Q518-813.334 456.999-813.334q-138.666 0-236 97Q123.666-619.333 123.666-480q0 60.667 19.833 113.834 19.833 53.166 55.167 96.833Zm258.333 122.667q53.667 0 101.334-15.667t88.001-44.334H267.665q40.334 28.667 88.334 44.334 48 15.667 101 15.667Z"/></svg>

<svg xmlns="http://www.w3.org/2000/svg" viewBox="0 -960 960 960" width="32" height="32"><path d="M457-80q-82.33 0-155.33-31.5-73-31.5-127.34-85.83Q120-251.67 88.5-324.67T57-480q0-83 31.5-156t85.83-127q54.34-54 127.34-85.5T457-880q83 0 156 31.5T740-763q54 54 85.5 127T857-480q0 82.33-31.5 155.33-31.5 73-85.5 127.34Q686-143 613-111.5T457-80Zm296-246.67H349.33L296-273.33h422.67q10-12.67 18.5-25.84 8.5-13.16 15.83-27.5Zm36-120H470.33l-54 53.34H779q3.33-12.67 5.67-25.84 2.33-13.16 4.33-27.5Zm-10-120H590.33L537-513.33h252q-2-14.34-4.33-27.5-2.34-13.17-5.67-25.84Zm-63.67-124L658-633.33h95q-7.67-16-17.17-29.84-9.5-13.83-20.5-27.5ZM198.67-269.33 669-737.67q-43.67-36-97.33-55.83Q518-813.33 457-813.33q-138.67 0-236 97-97.33 97-97.33 236.33 0 60.67 19.83 113.83 19.83 53.17 55.17 96.84ZM457-146.67q53.67 0 101.33-15.66 47.67-15.67 88-44.34H267.67Q308-178 356-162.33q48 15.66 101 15.66Z"/></svg>
